X:1
T:Bridehead, 88.68.86
T:Bridehead, 88.68.86
T:Arthur Henry Dyke Troyte, 1860
T:Public Domain Courtesy of the Cyber Hymnal™
C:Arthur Henry Dyke Troyte, 1860
Z:Public Domain
Z:Courtesy of the Cyber Hymnal™
%%score ( 1 2 ) ( 3 4 )
L:1/8
Q:1/4=110
M:none
K:F
V:1 treble 
V:2 treble 
V:3 bass 
V:4 bass 
V:1
 [CF]2 | [DF]2 [EG]2 [FA]2 F2 | [FB]2 [FA]2 [EG]2 [EG]2 | [FA]2 [Gc]2 [FB]2 [EA]2 | %4
 [DG]2 F2 [CE]2 [CF]2 | [DF]2 [DF]2 F2 z x3 | [CF]6 [CF]2 | [DF]2 [EG]2 [FA]2 F2 | %8
 [FB]2 [FA]2 [EG]2 [EG]2 | [FA]2 [Gc]2 [FB]2 [EA]2 | [DG]2 F2 [CE]2 [CF]2 | %11
 [DF]2 [DF]2 [CF]2 z x2 | [CF]6 |] %13
V:2
 x2 | x6 F2 | x8 | x8 | x2 (A,B,) x4 | x4 C3 E2 B, | x8 | x6 F2 | x8 | x8 | x2 (A,B,) x4 | %11
 x6 (E2 B,) | x6 |] %13
V:3
 [F,A,]2 | [D,A,]2 [C,C]2 [F,C]2 [D,D]2 | [B,,D]2 [F,C]2 [C,C]2 [C,C]2 | %3
 [F,C]2 [E,C]2 [D,D]2 [C,A,]2 | [B,,B,]2 [D,F,]2 [C,G,]2 [F,A,]2 | %5
 [D,A,]2 [B,,B,]2 [C,A,]2 [C,G,]2 x2 | F,6 [F,A,]2 | [D,A,]2 [C,C]2 [F,C]2 [D,D]2 | %8
 [B,,D]2 [F,C]2 [C,C]2 [C,C]2 | [F,C]2 [E,C]2 [D,D]2 [C,A,]2 | [B,,B,]2 [D,F,]2 [C,G,]2 [F,A,]2 | %11
 [D,A,]2 [B,,B,]2 [C,A,]2 [C,G,]2 x | F,6 |] %13
V:4
 x2 | x8 | x8 | x8 | x8 | x10 | F,6 x2 | x8 | x8 | x8 | x8 | x9 | F,6 |] %13

